X:519
T:The Advice
M:2/4
L:1/8
B:O'Neill's 519
N:"Moderate" "collected by J. O'Neill"
Z:Transcribed by Dave Wooldridge
K:G
DG.G A/2B/2|DEF G3/4F/4|DG.G A/2B/2|Bc3/4B/4 AG|
DG.G A/2B/2|DE F2|DG.G A/2B/2|Bc/2B/2 BAG||
GB3/4c/4 dd|ec3/4e/4 d2|GB3/4c/4 dB|dc/2B/2 BA|
GB3/4c/4 df|ec3/4e/4 dB|cB.A G3/4B/4|dB/2G/2 TAG||
